.local/share/icons/Gruvbox-Plus-Dark/panel/16/si-syncthing-3.svg

<svg xmlns="http://www.w3.org/2000/svg" width="16" height="16" version="1.1">
 <defs>
  <style id="current-color-scheme" type="text/css">
   .ColorScheme-Text { color:#ebdbb2; } .ColorScheme-Highlight { color:#458588; }
  </style>
 </defs>
 <path style="fill:currentColor" class="ColorScheme-Text" d="M 14.062178,4.5 A 7,7 0 0 0 4.5000001,1.9378222 7,7 0 0 0 1.9378222,11.5 7,7 0 0 0 11.5,14.062178 7,7 0 0 0 14.062178,4.5 Z m -1.732051,1 A 5,5 0 0 1 11.271075,11.778949 1.5,1.5 0 0 1 10.566987,13.446152 1.5,1.5 0 0 1 8.5603951,12.962819 5,5 0 0 1 5.0298918,12.019683 1.5,1.5 0 0 1 3.0538479,11.433012 1.5,1.5 0 0 1 3.2793834,9.6361514 5,5 0 0 1 5.5000001,3.669873 5,5 0 0 1 5.5754007,3.6285957 1.5,1.5 0 0 1 6.2990382,2.0538476 1.5,1.5 0 0 1 8.3480763,2.6028857 1.5,1.5 0 0 1 8.5130315,3.0331277 5,5 0 0 1 12.330127,5.5 Z M 11.464102,6 A 4,4 0 0 0 8.3905005,4.0240229 1.5,1.5 0 0 1 7.7990382,4.6519238 1.5,1.5 0 0 1 7.74465,4.6788143 L 8.1093875,7.2129021 A 1.5,1.5 0 0 1 9.1160255,7.9330127 1.5,1.5 0 0 1 8.9560548,9.6559353 L 9.5439455,10.674192 A 1.5,1.5 0 0 1 10.703608,10.940599 4,4 0 0 0 11.464102,6 Z M 6.7556616,4.8213049 A 1.5,1.5 0 0 1 6.0797602,4.4943594 4,4 0 0 0 6.0000001,4.5358984 4,4 0 0 0 4.185639,9.1941145 1.5,1.5 0 0 1 5.325808,9.5439455 L 6.3440648,8.9560547 A 1.5,1.5 0 0 1 7.0669874,7.3839746 1.5,1.5 0 0 1 7.1213756,7.357084 L 6.7556616,4.8213049 Z M 8.0900293,10.155935 A 1.5,1.5 0 0 1 6.8440649,9.8220798 L 5.825808,10.409971 a 1.5,1.5 0 0 1 -0.1024619,0.87331 4,4 0 0 0 2.6039856,0.697736 1.5,1.5 0 0 1 0.3505918,-0.806823 L 8.0900293,10.155935 Z"/>
</svg>

<svg width="16" height="16" version="1.1" xmlns="http://www.w3.org/2000/svg">
  <defs>
    <style id="current-color-scheme" type="text/css">.ColorScheme-Text { color:#ebdbb2; } .ColorScheme-Highlight { color:#458588; } .ColorScheme-NeutralText { color:#fe8019; } .ColorScheme-PositiveText { color:#689d6a; } .ColorScheme-NegativeText { color:#fb4934; }</style>
  </defs>
  <path class="ColorScheme-Text" d="m14.06 4.5a7 7 0 0 0-9.562-2.562 7 7 0 0 0-2.562 9.562 7 7 0 0 0 9.562 2.562 7 7 0 0 0 2.562-9.562zm-1.732 1a5 5 0 0 1-1.059 6.279 1.5 1.5 0 0 1-0.7041 1.667 1.5 1.5 0 0 1-2.007-0.4833 5 5 0 0 1-3.531-0.9431 1.5 1.5 0 0 1-1.976-0.5867 1.5 1.5 0 0 1 0.2255-1.797 5 5 0 0 1 2.221-5.966 5 5 0 0 1 0.0754-0.04128 1.5 1.5 0 0 1 0.7236-1.575 1.5 1.5 0 0 1 2.049 0.549 1.5 1.5 0 0 1 0.165 0.4302 5 5 0 0 1 3.817 2.467zm-0.866 0.5a4 4 0 0 0-3.074-1.976 1.5 1.5 0 0 1-0.5915 0.6279 1.5 1.5 0 0 1-0.05439 0.02689l0.3647 2.534a1.5 1.5 0 0 1 1.007 0.7201 1.5 1.5 0 0 1-0.16 1.723l0.5879 1.018a1.5 1.5 0 0 1 1.16 0.2664 4 4 0 0 0 0.7605-4.941zm-4.708-1.179a1.5 1.5 0 0 1-0.6759-0.3269 4 4 0 0 0-0.07976 0.04154 4 4 0 0 0-1.814 4.658 1.5 1.5 0 0 1 1.14 0.3498l1.018-0.5879a1.5 1.5 0 0 1 0.7229-1.572 1.5 1.5 0 0 1 0.05439-0.02689l-0.3657-2.536zm1.334 5.335a1.5 1.5 0 0 1-1.246-0.3339l-1.018 0.5879a1.5 1.5 0 0 1-0.1025 0.8733 4 4 0 0 0 2.604 0.6977 1.5 1.5 0 0 1 0.3506-0.8068l-0.5879-1.018z" fill="currentColor"/>
</svg>
